X: 1
T:The Stool of Repentance  "1998.3"
M:6/8
L:1/8
Q:80
C:Traditional
S:Jig
K:HP
|: {gcd}c2{e}A{g}A{d}c{e}A|
{g}A{d}c{e}A{gef}e2c|
{Gdc}d2c{g}B{d}G{d}B|  !
{g}B{d}G{d}B{g}fed|
{gcd}c2{e}A{g}A{d}c{e}A|
{g}A{d}c{e}A{gef}e2c|  !
{Gdc}d2e{gfg}f2e|
{g}fac{gBd}B2{G}A:| |:
{g}c{d}A{e}A{g}eA{d}A|  !
{g}c{d}A{e}A{gef}e2c|
{g}dB{G}B{g}fB{G}B|
{gfg}f2e{g}fga|  !
c{d}A{e}A{g}eA{d}A|
{g}c{d}A{e}A{gef}e2c|
{Gdc}d2e{gfg}f2e|  !
{g}fac{gBd}B2{G}A:| |:
{ag}a3{cd}c2e|
agf{g}edc|  !
af{e}f{g}f2e|
{g}fag{fg}f2e|
{ag}a3{cd}c2e|  !
agf{g}edc|
{Gdc}d2e{gfg}f2e|
{g}fac{gBd}B2{G}A:| |:  !
{g}c2{GdG}e{g}ec{d}A|
{g}c2{GdG}e{gef}e2c|
{g}def{g}fdB|  !
adB{g}fed|
{g}c2{GdG}e{g}ec{d}A|
ac{d}A{g}edc|  !
{Gdc}d2e{gfg}f2e|
{g}fac|1 {gBd}B2{G}A:|2
{gBd}B3|]  !
